_includes/icons/color-launch.svg

<svg fill="#666" height="50" viewBox="0 0 48 48" width="50" xmlns="http://www.w3.org/2000/svg"><g fill="#ffcdd2"><path d="m32 40c0 2.761719-2.238281 5-5 5s-5-2.238281-5-5 2.238281-5 5-5 5 2.238281 5 5z"/><path d="m36 39.5c0 1.933594-1.566406 3.5-3.5 3.5s-3.5-1.566406-3.5-3.5 1.566406-3.5 3.5-3.5 3.5 1.566406 3.5 3.5z"/><path d="m26 40c0 2.761719-2.238281 5-5 5s-5-2.238281-5-5 2.238281-5 5-5 5 2.238281 5 5z"/><path d="m19 39.5c0 1.933594-1.566406 3.5-3.5 3.5s-3.5-1.566406-3.5-3.5 1.566406-3.5 3.5-3.5 3.5 1.566406 3.5 3.5z"/></g><path d="m20 35c0-2.210937 1.789063-4 4-4 2.210938 0 4 1.789063 4 4 0 2.210938-4 7-4 7s-4-4.789062-4-7z" fill="#ff3d00"/><path d="m22 35c0-1.105469.894531-2 2-2s2 .894531 2 2-2 3-2 3-2-1.894531-2-3z" fill="#ffeb3b"/><path d="m18 13v19h12s0-15.996094 0-19c0-1.582031-1.664062-4.542969-3.238281-6.996094h-5.519531c-1.578125 2.453125-3.242188 5.417969-3.242188 6.996094z" fill="#d1c4e9"/><g fill="#7e57c2"><path d="m35 32-5-1.996094v-12l5 6.996094z"/><path d="m13 32 5-1.996094v-12l-5 6.996094z"/><path d="m21.242188 6h5.519531c-1.417969-2.203125-2.761719-4-2.761719-4s-1.34375 1.796875-2.757812 4z"/><path d="m30 32-2 2h-8l-2-2z"/></g><path d="m26 14.003906c0 1.101563-.894531 2-2 2s-2-.898437-2-2c0-1.105468.894531-2 2-2s2 .894532 2 2z" fill="#311b92"/><path d="m26 20c0 1.105469-.894531 2-2 2s-2-.894531-2-2 .894531-2 2-2 2 .894531 2 2z" fill="#311b92"/><path d="m26 26c0 1.105469-.894531 2-2 2s-2-.894531-2-2 .894531-2 2-2 2 .894531 2 2z" fill="#311b92"/></svg>

<svg xmlns="http://www.w3.org/2000/svg" viewBox="0 0 48 48" width="50" height="50" fill="#666"><path d="M 32 40 C 32 42.761719 29.761719 45 27 45 C 24.238281 45 22 42.761719 22 40 C 22 37.238281 24.238281 35 27 35 C 29.761719 35 32 37.238281 32 40 Z" fill="#ffcdd2"/><path d="M 36 39.5 C 36 41.433594 34.433594 43 32.5 43 C 30.566406 43 29 41.433594 29 39.5 C 29 37.566406 30.566406 36 32.5 36 C 34.433594 36 36 37.566406 36 39.5 Z" fill="#ffcdd2"/><path d="M 26 40 C 26 42.761719 23.761719 45 21 45 C 18.238281 45 16 42.761719 16 40 C 16 37.238281 18.238281 35 21 35 C 23.761719 35 26 37.238281 26 40 Z" fill="#ffcdd2"/><path d="M 19 39.5 C 19 41.433594 17.433594 43 15.5 43 C 13.566406 43 12 41.433594 12 39.5 C 12 37.566406 13.566406 36 15.5 36 C 17.433594 36 19 37.566406 19 39.5 Z" fill="#ffcdd2"/><path d="M 20 35 C 20 32.789063 21.789063 31 24 31 C 26.210938 31 28 32.789063 28 35 C 28 37.210938 24 42 24 42 C 24 42 20 37.210938 20 35 Z" fill="#ff3d00"/><path d="M 22 35 C 22 33.894531 22.894531 33 24 33 C 25.105469 33 26 33.894531 26 35 C 26 36.105469 24 38 24 38 C 24 38 22 36.105469 22 35 Z" fill="#ffeb3b"/><path d="M 18 13 C 18 16 18 32 18 32 L 30 32 C 30 32 30 16.003906 30 13 C 30 11.417969 28.335938 8.457031 26.761719 6.003906 L 21.242188 6.003906 C 19.664063 8.457031 18 11.421875 18 13 Z" fill="#d1c4e9"/><path d="M 35 32 L 30 30.003906 L 30 18.003906 L 35 25 Z" fill="#7e57c2"/><path d="M 13 32 L 18 30.003906 L 18 18.003906 L 13 25 Z" fill="#7e57c2"/><path d="M 21.242188 6 L 26.761719 6 C 25.34375 3.796875 24 2 24 2 C 24 2 22.65625 3.796875 21.242188 6 Z" fill="#7e57c2"/><path d="M 30 32 L 28 34 L 20 34 L 18 32 Z" fill="#7e57c2"/><path d="M 26 14.003906 C 26 15.105469 25.105469 16.003906 24 16.003906 C 22.894531 16.003906 22 15.105469 22 14.003906 C 22 12.898438 22.894531 12.003906 24 12.003906 C 25.105469 12.003906 26 12.898438 26 14.003906 Z" fill="#311b92"/><path d="M 26 20 C 26 21.105469 25.105469 22 24 22 C 22.894531 22 22 21.105469 22 20 C 22 18.894531 22.894531 18 24 18 C 25.105469 18 26 18.894531 26 20 Z" fill="#311b92"/><path d="M 26 26 C 26 27.105469 25.105469 28 24 28 C 22.894531 28 22 27.105469 22 26 C 22 24.894531 22.894531 24 24 24 C 25.105469 24 26 24.894531 26 26 Z" fill="#311b92"/></svg>
